svg/semantic_web.svg

<svg xmlns="http://www.w3.org/2000/svg" viewBox="0 0 24 24"><path d="M12.9 4.22C18.73 6.84 20 2 20 2s-1.11 6.07-6.21 8.55c-1.04.51-1.69.78-1.69.78L3.73 7.25l8.37-3.43s-.2-.06.8.4M11.12 22l-7.79-4.22V9.07l7.79 3.97zm1.76 0 7.8-4.22V9.07l-7.8 3.97z"/></svg>

<?xml version="1.0" encoding="UTF-8"?><!DOCTYPE svg PUBLIC "-//W3C//DTD SVG 1.1//EN" "http://www.w3.org/Graphics/SVG/1.1/DTD/svg11.dtd"><svg xmlns="http://www.w3.org/2000/svg" xmlns:xlink="http://www.w3.org/1999/xlink" version="1.1" id="mdi-semantic-web" width="24" height="24" viewBox="0 0 24 24"><path d="M12.9 4.22C18.73 6.84 20 2 20 2S18.89 8.07 13.79 10.55C12.75 11.06 12.1 11.33 12.1 11.33L3.73 7.25L12.1 3.82C12.1 3.82 11.9 3.76 12.9 4.22M11.12 22L3.33 17.78V9.07L11.12 13.04V22M12.88 22L20.68 17.78V9.07L12.88 13.04V22Z" /></svg>
